X: 178
T: Mrs. Gordon of Park
T: Jig, F
C: William Marshall
L: 1/16
M: 6/8
K: F
|: F6 c2A2F2| F2G2F2 d6| c2A2F2 F2G2A2| G2E2C2 C2D2E2| 
F6 c2A2F2| F2G2F2 a6| g2a2f2 e2f2d2| [1 c2d2B2 A2B2G2:| [2 c6 c2A2B2|| 
|: c4c2 g2e2c2| c2d2c2 a6| b4g2 a4f2| g4f2 e2d2c2| 
[1 c4c2 g2e2c2| c2d2c2 b6| a2g2f2 c2d2e2| f6 f2e2d2:| 
[2 f6 A2B2c2| d2B2c2 d2e2f2| c2b2a2 g2f2e2| f2c2A2 F6|| 
D: Natalie MacMaster, In My Hands, Rounder 11661-7025-2
